icons/pause.svg

<svg xmlns="http://www.w3.org/2000/svg" width="24" height="24" viewBox="0 0 24 24">
  <path d="M9,3 C10.1045695,3 11,3.8954305 11,5 L11,19 C11,20.1045695 10.1045695,21 9,21 L7,21 C5.8954305,21 5,20.1045695 5,19 L5,5 C5,3.8954305 5.8954305,3 7,3 L9,3 Z M17,3 C18.1045695,3 19,3.8954305 19,5 L19,19 C19,20.1045695 18.1045695,21 17,21 L15,21 C13.8954305,21 13,20.1045695 13,19 L13,5 C13,3.8954305 13.8954305,3 15,3 L17,3 Z"/>
</svg>

<svg xmlns="http://www.w3.org/2000/svg" viewBox="0 0 24 24">
  <path d="M9 3a2 2 0 0 1 2 2v14a2 2 0 0 1-2 2H7a2 2 0 0 1-2-2V5c0-1.1.9-2 2-2h2zm8 0a2 2 0 0 1 2 2v14a2 2 0 0 1-2 2h-2a2 2 0 0 1-2-2V5c0-1.1.9-2 2-2h2z"/>
</svg>
